icons/filled/circle-number-5.svg

<svg xmlns="http://www.w3.org/2000/svg" width="24" height="24" viewBox="0 0 24 24" fill="currentColor"><path d="M12 2c5.523 0 10 4.477 10 10s-4.477 10 -10 10s-10 -4.477 -10 -10s4.477 -10 10 -10zm2 5h-4a1 1 0 0 0 -.993 .883l-.007 .117v4a1 1 0 0 0 .883 .993l.117 .007h3v2h-2l-.007 -.117a1 1 0 0 0 -1.993 .117a2 2 0 0 0 1.85 1.995l.15 .005h2a2 2 0 0 0 1.995 -1.85l.005 -.15v-2a2 2 0 0 0 -1.85 -1.995l-.15 -.005h-2v-2h3a1 1 0 0 0 .993 -.883l.007 -.117a1 1 0 0 0 -.883 -.993l-.117 -.007z"/></svg>

<svg xmlns="http://www.w3.org/2000/svg" width="24" height="24" fill="currentColor"><path d="M12 2c5.523 0 10 4.477 10 10s-4.477 10-10 10S2 17.523 2 12 6.477 2 12 2m2 5h-4a1 1 0 0 0-.993.883L9 8v4a1 1 0 0 0 .883.993L10 13h3v2h-2l-.007-.117A1 1 0 0 0 9 15a2 2 0 0 0 1.85 1.995L11 17h2a2 2 0 0 0 1.995-1.85L15 15v-2a2 2 0 0 0-1.85-1.995L13 11h-2V9h3a1 1 0 0 0 .993-.883L15 8a1 1 0 0 0-.883-.993z"/></svg>
